src/components/00-materials/images-raw/Water Can.svg

<svg width="96" height="96" viewBox="0 0 96 96" fill="none" xmlns="http://www.w3.org/2000/svg">
<path d="M20.59 20.1499H63.77V82.5199H20.59V20.1499Z" stroke="#00008F" stroke-width="2" stroke-linecap="round" stroke-linejoin="round"/>
<path d="M20.19 66.53C16.2275 66.4283 12.4615 64.7828 9.69484 61.9443C6.9282 59.1058 5.37982 55.2988 5.37982 51.335C5.37982 47.3712 6.9282 43.5642 9.69484 40.7257C12.4615 37.8872 16.2275 36.2416 20.19 36.14M63.77 54.53L86.17 24.33L91 27.43L63.71 77.6L63.77 54.53ZM20.59 27.35H63.77H20.59ZM31 19.88C30.9659 19.0189 31.1061 18.1598 31.4121 17.3542C31.7182 16.5487 32.1837 15.8132 32.7809 15.1919C33.3781 14.5706 34.0946 14.0763 34.8875 13.7387C35.6804 13.4011 36.5332 13.2271 37.395 13.2271C38.2567 13.2271 39.1096 13.4011 39.9025 13.7387C40.6953 14.0763 41.4118 14.5706 42.009 15.1919C42.6062 15.8132 43.0718 16.5487 43.3778 17.3542C43.6838 18.1598 43.824 19.0189 43.79 19.88H31Z" stroke="#00008F" stroke-width="2" stroke-linecap="round" stroke-linejoin="round"/>
</svg>

<svg width="96" height="96" viewBox="0 0 96 96" fill="none" xmlns="http://www.w3.org/2000/svg"><path d="M20.59 20.15h43.18v62.37H20.59V20.15z" stroke="#00008F" stroke-width="2" stroke-linecap="round" stroke-linejoin="round"/><path d="M20.19 66.53a15.2 15.2 0 010-30.39m43.58 18.39l22.4-30.2 4.83 3.1L63.71 77.6l.06-23.07zM20.59 27.35h43.18-43.18zM31 19.88a6.4 6.4 0 1112.79 0H31z" stroke="#00008F" stroke-width="2" stroke-linecap="round" stroke-linejoin="round"/></svg>
